source/img/mail-contact.svg

<svg width="21" height="21" viewBox="0 0 21 21" fill="none" xmlns="http://www.w3.org/2000/svg">
<path d="M10.5 2.46094C8.12532 2.46094 6.19336 4.3929 6.19336 6.76758C6.19336 8.2418 6.93681 9.59827 8.18208 10.3961C9.45369 11.2108 11.0146 11.2974 12.4652 10.63C12.7738 10.488 12.909 10.1227 12.7669 9.81397C12.6249 9.50533 12.2596 9.37018 11.9509 9.51218C10.8902 10.0002 9.75844 9.94469 8.84588 9.36005C7.95543 8.78957 7.42383 7.82041 7.42383 6.76758C7.42383 5.07138 8.8038 3.69141 10.5 3.69141C12.1962 3.69141 13.5762 5.07138 13.5762 6.76758C13.5762 7.10682 13.3002 7.38281 12.9609 7.38281C12.6509 7.38281 12.3614 7.14771 12.3458 6.77693C12.3457 6.77381 12.3457 6.7707 12.3457 6.76758C12.3457 5.74986 11.5177 4.92188 10.5 4.92188C9.48228 4.92188 8.6543 5.74986 8.6543 6.76758C8.6543 7.7853 9.48228 8.61328 10.5 8.61328C10.9723 8.61328 11.4036 8.43474 11.7304 8.14185C12.0572 8.43478 12.4886 8.61328 12.9609 8.61328C13.9787 8.61328 14.8066 7.7853 14.8066 6.76758C14.8066 4.3929 12.8747 2.46094 10.5 2.46094ZM11.1066 6.86626C11.0591 7.15866 10.8056 7.38281 10.5 7.38281C10.1608 7.38281 9.88477 7.10682 9.88477 6.76758C9.88477 6.42834 10.1608 6.15234 10.5 6.15234C10.8155 6.15234 11.0759 6.39105 11.1109 6.69724C11.1017 6.75314 11.1002 6.81003 11.1066 6.86626Z" fill="url(#paint0_linear)"/>
<path d="M19.7285 8.07909C19.7283 7.91999 19.6642 7.76098 19.5483 7.64503L17.2676 5.36431V0.615234C17.2676 0.275461 16.9921 0 16.6523 0H4.34766C4.00788 0 3.73242 0.275461 3.73242 0.615234V5.36431L1.45171 7.64503C1.44957 7.64716 1.44777 7.64954 1.44568 7.65171C1.33038 7.77049 1.27177 7.92688 1.27153 8.07909C1.27153 8.0795 1.27148 8.07987 1.27148 8.08028V19.1543C1.27148 20.1733 2.10066 21 3.11719 21H17.8828C18.9016 21 19.7285 20.1712 19.7285 19.1543V8.08028C19.7285 8.07987 19.7285 8.0795 19.7285 8.07909ZM17.2676 7.10444L18.2432 8.08008L17.2676 9.05572V7.10444ZM4.96289 5.61935C4.96289 5.61922 4.96289 5.61906 4.96289 5.61894V1.23047H16.0371V5.61894C16.0371 5.61906 16.0371 5.61922 16.0371 5.61935V10.2862L12.7061 13.6172H8.29389L4.96289 10.2862V5.61935ZM3.73242 7.10444V9.05572L2.75678 8.08008L3.73242 7.10444ZM2.50195 18.8995V9.56538L7.169 14.2324L2.50195 18.8995ZM3.37206 19.7695L8.29389 14.8477H12.7061L17.6279 19.7695H3.37206ZM18.498 18.8995L13.831 14.2324L18.498 9.56538V18.8995Z" fill="url(#paint1_linear)"/>
<defs>
<linearGradient id="paint0_linear" x1="14.8066" y1="11.0753" x2="6.19336" y2="11.0753" gradientUnits="userSpaceOnUse">
<stop stop-color="#FF6E2F"/>
<stop offset="1" stop-color="#F84343"/>
</linearGradient>
<linearGradient id="paint1_linear" x1="19.7285" y1="21" x2="1.27148" y2="21" gradientUnits="userSpaceOnUse">
<stop stop-color="#FF6E2F"/>
<stop offset="1" stop-color="#F84343"/>
</linearGradient>
</defs>
</svg>

<svg width="21" height="21" fill="none" xmlns="http://www.w3.org/2000/svg"><path d="M10.5 2.46a4.312 4.312 0 00-4.307 4.308c0 1.474.744 2.83 1.99 3.628 1.27.815 2.832.901 4.282.234a.615.615 0 10-.514-1.118c-1.06.488-2.193.433-3.105-.152a3.068 3.068 0 01-1.422-2.592A3.08 3.08 0 0110.5 3.69a3.08 3.08 0 013.076 3.077.616.616 0 01-1.23.009v-.01A1.848 1.848 0 0010.5 4.923a1.848 1.848 0 00-1.846 1.846c0 1.017.828 1.845 1.846 1.845.472 0 .904-.178 1.23-.471a1.84 1.84 0 001.23.471 1.848 1.848 0 001.847-1.845A4.311 4.311 0 0010.5 2.46zm.607 4.406a.616.616 0 11.004-.169.614.614 0 00-.004.17z" fill="url(#paint0_linear)"/><path d="M19.729 8.08a.62.62 0 00-.18-.435l-2.281-2.28V.614A.615.615 0 0016.652 0H4.348a.615.615 0 00-.616.615v4.75l-2.28 2.28-.006.007a.618.618 0 00-.174.427v11.075c0 1.02.829 1.846 1.845 1.846h14.766a1.848 1.848 0 001.846-1.846V8.08zm-2.461-.976l.975.976-.975.976V7.104zM4.963 5.62V1.23h11.074v9.056l-3.33 3.331H8.293l-3.331-3.33V5.618zm-1.23 1.485v1.952l-.976-.976.975-.976zM2.501 18.9V9.564l4.667 4.667L2.502 18.9zm.87.87l4.922-4.922h4.412l4.922 4.921H3.372zm15.126-.87l-4.667-4.668 4.667-4.667V18.9z" fill="url(#paint1_linear)"/><defs><linearGradient id="paint0_linear" x1="14.807" y1="11.075" x2="6.193" y2="11.075" gradientUnits="userSpaceOnUse"><stop stop-color="#FF6E2F"/><stop offset="1" stop-color="#F84343"/></linearGradient><linearGradient id="paint1_linear" x1="19.729" y1="21" x2="1.271" y2="21" gradientUnits="userSpaceOnUse"><stop stop-color="#FF6E2F"/><stop offset="1" stop-color="#F84343"/></linearGradient></defs></svg>
